branches/nugui/src/gui/icons/style_tube.svg

<?xml version="1.0" encoding="UTF-8" standalone="no"?>
<!-- Created with Inkscape (http://www.inkscape.org/) -->

<svg
   xmlns:dc="http://purl.org/dc/elements/1.1/"
   xmlns:cc="http://creativecommons.org/ns#"
   xmlns:rdf="http://www.w3.org/1999/02/22-rdf-syntax-ns#"
   xmlns:svg="http://www.w3.org/2000/svg"
   xmlns="http://www.w3.org/2000/svg"
   xmlns:xlink="http://www.w3.org/1999/xlink"
   xmlns:inkscape="http://www.inkscape.org/namespaces/inkscape"
   version="1.0"
   width="100"
   height="100"
   id="svg2">
  <metadata
     id="metadata180">
    <rdf:RDF>
      <cc:Work
         rdf:about="">
        <dc:format>image/svg+xml</dc:format>
        <dc:type
           rdf:resource="http://purl.org/dc/dcmitype/StillImage" />
      </cc:Work>
    </rdf:RDF>
  </metadata>
  <defs
     id="defs4">
    <linearGradient
       id="linearGradient3613">
      <stop
         id="stop3615"
         style="stop-color:#690000;stop-opacity:1"
         offset="0" />
      <stop
         id="stop3617"
         style="stop-color:#ff0000;stop-opacity:0"
         offset="1" />
    </linearGradient>
    <linearGradient
       id="linearGradient3384">
      <stop
         id="stop3386"
         style="stop-color:#ff0000;stop-opacity:1"
         offset="0" />
      <stop
         id="stop3388"
         style="stop-color:#000000;stop-opacity:1"
         offset="1" />
    </linearGradient>
    <linearGradient
       id="linearGradient3252">
      <stop
         id="stop3254"
         style="stop-color:#ffffff;stop-opacity:1"
         offset="0" />
      <stop
         id="stop3256"
         style="stop-color:#ff0000;stop-opacity:0"
         offset="1" />
    </linearGradient>
    <linearGradient
       x1="40.687019"
       y1="39.968079"
       x2="73.02729"
       y2="39.968079"
       id="linearGradient3259"
       xlink:href="#linearGradient3613"
       gradientUnits="userSpaceOnUse"
       gradientTransform="translate(-54.38462,-11.019348)" />
    <linearGradient
       x1="25.398125"
       y1="63.345894"
       x2="90.625114"
       y2="63.345894"
       id="linearGradient3261"
       xlink:href="#linearGradient3384"
       gradientUnits="userSpaceOnUse" />
    <radialGradient
       cx="-89.470657"
       cy="6.2001209"
       r="33.767956"
       fx="-89.470657"
       fy="6.2001209"
       id="radialGradient3263"
       xlink:href="#linearGradient3252"
       gradientUnits="userSpaceOnUse"
       gradientTransform="matrix(1,0,0,0.1880342,151.36789,55.8298)" />
  </defs>
  <path
     d="m 15.330807,33.739667 c -5.5041551,0 -9.9468034,7.50827 -9.9468034,16.742145 0,9.233877 4.4426483,16.742145 9.9468034,16.742145 0.225792,0 0.46732,-0.04083 0.689383,-0.06566 l 72.779088,0 c 2.552379,-2e-6 5.013467,-1.922119 6.959483,-5.186782 3.892031,-6.529338 3.892031,-17.139462 0,-23.668797 -1.946015,-3.264668 -4.407103,-4.563055 -6.959483,-4.563055 -0.660769,-10e-7 -1.271376,-0.02931 -2.035319,0 l -70.940736,0 0,0.03283 c -0.158991,-0.01266 -0.331565,-0.03283 -0.492416,-0.03283 z"
     inkscape:connector-curvature="0"
     id="path4632"
     style="fill:#282828;fill-opacity:1;fill-rule:evenodd;stroke:none" />
  <g
     transform="matrix(1.0504875,0,0,1.0504875,-4.3657054,-3.4096625)"
     id="g4619">
    <g
       transform="matrix(0,1,-1,0,84.157958,45.676714)"
       id="g3627">
      <path
         d="m 18.392668,-1.0573579 c 0,-2.42971 -1.83342,-4.798937 -4.94118,-6.651423 -6.2155301,-3.7049721 -16.3157212,-3.7049721 -22.5312493,0 -3.1077647,1.852486 -4.3676347,4.221713 -4.3676347,6.651423 0,0.629011 -0.004,1.18385 0.02388,1.91107695 l 0,67.53125295 31.812499,0 0.0037,-69.4423299 z"
         inkscape:connector-curvature="0"
         id="path3579"
         style="fill:#ff0000;fill-opacity:1;fill-rule:evenodd;stroke:#000000;stroke-width:0.5;stroke-linecap:round;stroke-linejoin:round;stroke-miterlimit:4;stroke-opacity:1;stroke-dasharray:none;stroke-dashoffset:2.63393869" />
      <path
         d="m 18.392671,-1.0573583 c 0,-2.42971 -1.83342,-4.798937 -4.94118,-6.6514229 -6.2155314,-3.7049718 -16.3157214,-3.7049718 -22.5312503,0 -3.1077697,1.8524859 -4.3676397,4.2217129 -4.3676397,6.6514229 0,0.62901156 -0.004,1.18385056 0.02389,1.91107756 l 0,67.53125074 31.8125,0 0.0037,-69.4423283 z"
         inkscape:connector-curvature="0"
         id="path3591"
         style="fill:url(#linearGradient3259);fill-opacity:1;fill-rule:evenodd;stroke:none" />
      <g
         transform="translate(14.142136,-1.4430751)"
         id="g3621">
        <path
           d="M 90.625114,63.345894 C 90.628268,81.36006 76.025786,95.9651 58.011619,95.9651 c -18.014166,0 -32.616648,-14.60504 -32.613494,-32.619206 -0.0032,-18.014166 14.599328,-32.619206 32.613494,-32.619206 18.014167,0 32.616649,14.60504 32.613495,32.619206 z"
           inkscape:connector-curvature="0"
           transform="matrix(0,-0.2910472,0.4882663,0,-42.57093,87.178008)"
           id="path3474"
           style="fill:#ff0000;fill-rule:evenodd;stroke:#000000;stroke-width:1px;stroke-linecap:butt;stroke-linejoin:miter;stroke-opacity:1" />
        <path
           d="M 90.625114,63.345894 C 90.628268,81.36006 76.025786,95.9651 58.011619,95.9651 c -18.014166,0 -32.616648,-14.60504 -32.613494,-32.619206 -0.0032,-18.014166 14.599328,-32.619206 32.613494,-32.619206 18.014167,0 32.616649,14.60504 32.613495,32.619206 z"
           inkscape:connector-curvature="0"
           transform="matrix(0.3452564,-0.2058015,0.3452564,0.2058015,-53.442293,69.13691)"
           id="path3476"
           style="opacity:0.71739131;fill:url(#linearGradient3261);fill-opacity:1;fill-rule:evenodd;stroke:#000000;stroke-width:1px;stroke-linecap:butt;stroke-linejoin:miter;stroke-opacity:1" />
      </g>
    </g>
    <rect
       width="67.535912"
       height="12.69906"
       x="28.129282"
       y="50.646103"
       id="rect3640"
       style="fill:url(#radialGradient3263);fill-opacity:1;fill-rule:evenodd;stroke:none" />
  </g>
</svg>

<?xml version="1.0" encoding="UTF-8" standalone="no"?>
<!-- Created with Inkscape (http://www.inkscape.org/) -->
<svg
   xmlns:dc="http://purl.org/dc/elements/1.1/"
   xmlns:cc="http://web.resource.org/cc/"
   xmlns:rdf="http://www.w3.org/1999/02/22-rdf-syntax-ns#"
   xmlns:svg="http://www.w3.org/2000/svg"
   xmlns="http://www.w3.org/2000/svg"
   xmlns:xlink="http://www.w3.org/1999/xlink"
   xmlns:sodipodi="http://sodipodi.sourceforge.net/DTD/sodipodi-0.dtd"
   xmlns:inkscape="http://www.inkscape.org/namespaces/inkscape"
   version="1.0"
   width="100"
   height="100"
   id="svg2"
   sodipodi:version="0.32"
   inkscape:version="0.45.1"
   sodipodi:docname="style_tube.svg"
   inkscape:output_extension="org.inkscape.output.svg.inkscape"
   sodipodi:docbase="/home/tris/src/aten/src/gui-qt/icons">
  <metadata
     id="metadata180">
    <rdf:RDF>
      <cc:Work
         rdf:about="">
        <dc:format>image/svg+xml</dc:format>
        <dc:type
           rdf:resource="http://purl.org/dc/dcmitype/StillImage" />
      </cc:Work>
    </rdf:RDF>
  </metadata>
  <sodipodi:namedview
     inkscape:window-height="621"
     inkscape:window-width="776"
     inkscape:pageshadow="2"
     inkscape:pageopacity="0.0"
     guidetolerance="10.0"
     gridtolerance="10.0"
     objecttolerance="10.0"
     borderopacity="1.0"
     bordercolor="#666666"
     pagecolor="#ffffff"
     id="base"
     inkscape:zoom="1.0175"
     inkscape:cx="-90.664524"
     inkscape:cy="14.110192"
     inkscape:window-x="20"
     inkscape:window-y="121"
     inkscape:current-layer="svg2" />
  <defs
     id="defs4">
    <linearGradient
       id="linearGradient3613">
      <stop
         style="stop-color:#690000;stop-opacity:1"
         offset="0"
         id="stop3615" />
      <stop
         style="stop-color:#ff0000;stop-opacity:0"
         offset="1"
         id="stop3617" />
    </linearGradient>
    <linearGradient
       id="linearGradient3384">
      <stop
         style="stop-color:#ff0000;stop-opacity:1"
         offset="0"
         id="stop3386" />
      <stop
         style="stop-color:#000000;stop-opacity:1"
         offset="1"
         id="stop3388" />
    </linearGradient>
    <linearGradient
       id="linearGradient3252">
      <stop
         style="stop-color:#ffffff;stop-opacity:1"
         offset="0"
         id="stop3254" />
      <stop
         style="stop-color:#ff0000;stop-opacity:0"
         offset="1"
         id="stop3256" />
    </linearGradient>
    <linearGradient
       x1="40.687019"
       y1="39.968079"
       x2="73.02729"
       y2="39.968079"
       id="linearGradient3634"
       xlink:href="#linearGradient3613"
       gradientUnits="userSpaceOnUse"
       gradientTransform="translate(-54.38462,-11.019348)" />
    <linearGradient
       x1="25.398125"
       y1="63.345894"
       x2="90.625114"
       y2="63.345894"
       id="linearGradient3636"
       xlink:href="#linearGradient3384"
       gradientUnits="userSpaceOnUse" />
    <radialGradient
       cx="-89.470657"
       cy="6.2001209"
       r="33.767956"
       fx="-89.470657"
       fy="6.2001209"
       id="radialGradient4617"
       xlink:href="#linearGradient3252"
       gradientUnits="userSpaceOnUse"
       gradientTransform="matrix(1,0,0,0.1880342,151.36789,55.8298)" />
    <linearGradient
       inkscape:collect="always"
       xlink:href="#linearGradient3613"
       id="linearGradient3259"
       gradientUnits="userSpaceOnUse"
       gradientTransform="translate(-54.38462,-11.019348)"
       x1="40.687019"
       y1="39.968079"
       x2="73.02729"
       y2="39.968079" />
    <linearGradient
       inkscape:collect="always"
       xlink:href="#linearGradient3384"
       id="linearGradient3261"
       gradientUnits="userSpaceOnUse"
       x1="25.398125"
       y1="63.345894"
       x2="90.625114"
       y2="63.345894" />
    <radialGradient
       inkscape:collect="always"
       xlink:href="#linearGradient3252"
       id="radialGradient3263"
       gradientUnits="userSpaceOnUse"
       gradientTransform="matrix(1,0,0,0.1880342,151.36789,55.8298)"
       cx="-89.470657"
       cy="6.2001209"
       fx="-89.470657"
       fy="6.2001209"
       r="33.767956" />
  </defs>
  <path
     id="path4632"
     style="fill:#282828;fill-opacity:1;fill-rule:evenodd;stroke:none;stroke-width:0.5;stroke-linecap:round;stroke-linejoin:round;stroke-miterlimit:4;stroke-dasharray:none;stroke-dashoffset:2.63393869;stroke-opacity:1"
     d="M 15.330807,33.739667 C 9.8266519,33.739667 5.3840036,41.247937 5.3840036,50.481812 C 5.3840036,59.715689 9.8266519,67.223957 15.330807,67.223957 C 15.556599,67.223957 15.798127,67.183125 16.02019,67.158301 L 88.799278,67.158301 C 91.351657,67.158299 93.812745,65.236182 95.758761,61.971519 C 99.650792,55.442181 99.650792,44.832057 95.758761,38.302722 C 93.812746,35.038054 91.351658,33.739667 88.799278,33.739667 C 88.138509,33.739666 87.527902,33.710358 86.763959,33.739667 L 15.823223,33.739667 L 15.823223,33.772495 C 15.664232,33.759838 15.491658,33.739667 15.330807,33.739667 z " />
  <g
     id="g4619"
     transform="matrix(1.0504875,0,0,1.0504875,-4.3657054,-3.4096625)">
    <g
       id="g3627"
       transform="matrix(0,1,-1,0,84.157958,45.676714)">
      <path
         id="path3579"
         style="opacity:1;fill:#ff0000;fill-opacity:1;fill-rule:evenodd;stroke:#000000;stroke-width:0.5;stroke-linecap:round;stroke-linejoin:round;stroke-miterlimit:4;stroke-dasharray:none;stroke-dashoffset:2.63393869;stroke-opacity:1"
         d="M 18.392668,-1.0573579 C 18.392668,-3.4870679 16.559248,-5.8562949 13.451488,-7.7087809 C 7.2359579,-11.413753 -2.8642332,-11.413753 -9.0797613,-7.7087809 C -12.187526,-5.8562949 -13.447396,-3.4870679 -13.447396,-1.0573579 C -13.447396,-0.4283469 -13.451411,0.1264921 -13.423511,0.85371905 L -13.423511,68.384972 L 18.388988,68.384972 L 18.392668,-1.0573579 z " />
      <path
         id="path3591"
         style="opacity:1;fill:url(#linearGradient3259);fill-opacity:1;fill-rule:evenodd;stroke:none;stroke-width:0.5;stroke-linecap:round;stroke-linejoin:round;stroke-miterlimit:4;stroke-dasharray:none;stroke-dashoffset:2.63393869;stroke-opacity:1"
         d="M 18.392671,-1.0573583 C 18.392671,-3.4870683 16.559251,-5.8562953 13.451491,-7.7087812 C 7.2359596,-11.413753 -2.8642304,-11.413753 -9.0797593,-7.7087812 C -12.187529,-5.8562953 -13.447399,-3.4870683 -13.447399,-1.0573583 C -13.447399,-0.42834674 -13.451409,0.12649226 -13.423509,0.85371926 L -13.423509,68.38497 L 18.388991,68.38497 L 18.392671,-1.0573583 z " />
      <g
         id="g3621"
         transform="translate(14.142136,-1.4430751)">
        <path
           id="path3474"
           style="fill:#ff0000;fill-rule:evenodd;stroke:#000000;stroke-width:1px;stroke-linecap:butt;stroke-linejoin:miter;stroke-opacity:1"
           transform="matrix(0,-0.2910472,0.4882663,0,-42.57093,87.178008)"
           d="M 90.625114,63.345894 C 90.628268,81.36006 76.025786,95.9651 58.011619,95.9651 C 39.997453,95.9651 25.394971,81.36006 25.398125,63.345894 C 25.394971,45.331728 39.997453,30.726688 58.011619,30.726688 C 76.025786,30.726688 90.628268,45.331728 90.625114,63.345894 z " />
        <path
           id="path3476"
           style="opacity:0.71739131;fill:url(#linearGradient3261);fill-opacity:1;fill-rule:evenodd;stroke:#000000;stroke-width:1px;stroke-linecap:butt;stroke-linejoin:miter;stroke-opacity:1"
           transform="matrix(0.3452564,-0.2058015,0.3452564,0.2058015,-53.442293,69.13691)"
           d="M 90.625114,63.345894 C 90.628268,81.36006 76.025786,95.9651 58.011619,95.9651 C 39.997453,95.9651 25.394971,81.36006 25.398125,63.345894 C 25.394971,45.331728 39.997453,30.726688 58.011619,30.726688 C 76.025786,30.726688 90.628268,45.331728 90.625114,63.345894 z " />
      </g>
    </g>
    <rect
       id="rect3640"
       style="opacity:1;fill:url(#radialGradient3263);fill-opacity:1;fill-rule:evenodd;stroke:none;stroke-width:0.50199997;stroke-linecap:round;stroke-linejoin:round;stroke-miterlimit:4;stroke-dasharray:none;stroke-dashoffset:2.63393869;stroke-opacity:1"
       y="50.646103"
       x="28.129282"
       height="12.69906"
       width="67.535912" />
  </g>
</svg>
